icons/burn_unit_fill.svg

<svg width="48" height="48" viewBox="0 0 48 48" fill="none" xmlns="http://www.w3.org/2000/svg">
<path fill-rule="evenodd" clip-rule="evenodd" d="M9 6C7.34315 6 6 7.34315 6 9V39C6 40.6569 7.34315 42 9 42H39C40.6569 42 42 40.6569 42 39V9C42 7.34315 40.6569 6 39 6H9ZM15.7753 22.4773C18.0541 18.4116 20.0889 14.7814 20.0889 10C24.076 13.3085 27.809 17.0219 29.1179 22.0909C29.1901 21.9512 29.2665 21.805 29.3461 21.6526C29.9917 20.4169 30.8466 18.7805 31.33 17C34.1463 25.6833 34.6627 33.334 25 38C25.7372 33.5009 25.5254 30.4353 23.1926 26.2587C19.3994 30.0689 18.5926 32.9306 18.5926 38C15.0904 33.5826 12.2373 28.8208 15.3041 23.3195C15.4619 23.0364 15.6192 22.7558 15.7753 22.4773Z" fill="black"/>
</svg>

<svg
  xmlns="http://www.w3.org/2000/svg"
  width="24"
  height="24"
  viewBox="0 0 24 24"
  fill="none"
  stroke="currentColor"
  stroke-width="2"
  stroke-linecap="round"
  stroke-linejoin="round"
>
  <path
    fill-rule="evenodd"
    d="M9 6a3 3 0 0 0-3 3v30a3 3 0 0 0 3 3h30a3 3 0 0 0 3-3V9a3 3 0 0 0-3-3zm6.775 16.477c2.28-4.065 4.314-7.696 4.314-12.477 3.987 3.309 7.72 7.022 9.029 12.09l.228-.437c.646-1.236 1.5-2.872 1.984-4.653 2.816 8.683 3.333 16.334-6.33 21 .737-4.5.525-7.565-1.807-11.741-3.794 3.81-4.6 6.672-4.6 11.741-3.503-4.417-6.356-9.18-3.289-14.68z"
    clip-rule="evenodd"
  />
</svg>
